X: 13197
T: First Year In Buncrana, The
R: reel
M: 4/4
K: Adorian
|:d|e2dB ABcd|eaag efge|dGG2 EGDG|B2AB GABd|
edBd ABcd|eaaf g2fg|efed eaaf|gedg eAA:|
|:d|eaa2 gedB|cdef gfge|dGG2 EGDG|B2AB GABd|
eaa2 gedB|cdef g2fg|efed eaaf|gedg eAA:|

